site_src/Assets/svg/leaderboard-star-svgrepo-com.svg

<?xml version="1.0" encoding="utf-8"?><!-- Uploaded to: SVG Repo, www.svgrepo.com, Generator: SVG Repo Mixer Tools -->
<svg width="800px" height="800px" viewBox="0 0 24 24" fill="none" xmlns="http://www.w3.org/2000/svg">
<path d="M15 21H9V12.6C9 12.2686 9.26863 12 9.6 12H14.4C14.7314 12 15 12.2686 15 12.6V21Z" stroke="#000000" stroke-width="1.5" stroke-linecap="round" stroke-linejoin="round"/>
<path d="M20.4 21H15V18.1C15 17.7686 15.2686 17.5 15.6 17.5H20.4C20.7314 17.5 21 17.7686 21 18.1V20.4C21 20.7314 20.7314 21 20.4 21Z" stroke="#000000" stroke-width="1.5" stroke-linecap="round" stroke-linejoin="round"/>
<path d="M9 21V16.1C9 15.7686 8.73137 15.5 8.4 15.5H3.6C3.26863 15.5 3 15.7686 3 16.1V20.4C3 20.7314 3.26863 21 3.6 21H9Z" stroke="#000000" stroke-width="1.5" stroke-linecap="round" stroke-linejoin="round"/>
<path d="M10.8056 5.11325L11.7147 3.1856C11.8314 2.93813 12.1686 2.93813 12.2853 3.1856L13.1944 5.11325L15.2275 5.42427C15.4884 5.46418 15.5923 5.79977 15.4035 5.99229L13.9326 7.4917L14.2797 9.60999C14.3243 9.88202 14.0515 10.0895 13.8181 9.96099L12 8.96031L10.1819 9.96099C9.94851 10.0895 9.67568 9.88202 9.72026 9.60999L10.0674 7.4917L8.59651 5.99229C8.40766 5.79977 8.51163 5.46418 8.77248 5.42427L10.8056 5.11325Z" stroke="#000000" stroke-width="1.5" stroke-linecap="round" stroke-linejoin="round"/>
</svg>

<svg xmlns="http://www.w3.org/2000/svg" width="800" height="800" fill="none" viewBox="0 0 24 24"><path stroke="#000" stroke-linecap="round" stroke-linejoin="round" stroke-width="1.5" d="M15 21H9v-8.4a.6.6 0 0 1 .6-.6h4.8a.6.6 0 0 1 .6.6zM20.4 21H15v-2.9a.6.6 0 0 1 .6-.6h4.8a.6.6 0 0 1 .6.6v2.3a.6.6 0 0 1-.6.6M9 21v-4.9a.6.6 0 0 0-.6-.6H3.6a.6.6 0 0 0-.6.6v4.3a.6.6 0 0 0 .6.6zM10.806 5.113l.909-1.927a.312.312 0 0 1 .57 0l.91 1.927 2.032.311c.261.04.365.376.176.568l-1.47 1.5.347 2.118c.044.272-.228.48-.462.351l-1.818-1-1.818 1c-.233.128-.506-.079-.462-.351l.347-2.118-1.47-1.5c-.19-.192-.085-.528.175-.568z"/></svg>
